X:1
T:Braes of Newe, The
T:Braes of Newe, The
T:Alexander Walker
C:Alexander Walker
L:1/8
M:4/4
K:F
V:1 treble 
V:1
 C | F>GA>F D<F C2 | F>GA>F D<G G2 | F>GA>F (A<c) d2 | c<fa>g f2- f :| a | b>ga>f g>f d2 | %7
 d<gg>f d<gg>a | b>ga>f g>f d2 | c>fa>g (f2 f>)c | d<BB>d c>AA>c | B>GA>F G>FD>F | F>AG>B A>cB>d | %13
 c>fa>g (f2 f) || %14

